X: 17632
T: Hole In The Boat, The
R: jig
M: 6/8
K: Edorian
|:D|E2E FEE|EFA Bdf|edB B/c/dB|AFD FED|
E2E FEE|EFA Bdf|edB B/c/dB|AFD E2:|
|:A|B2e efe|dBc def|edB B/c/dB|AFD FED|
E2E FEE|EFA Bdf|edB B/c/dB|AFD E2:|

